X:4155
T:Paddy Faheys #1
M:4/4
O:Ireland
R:Reel
Z:Richard Robinson 
%%TUNEURL: http://www.leeds.ac.uk/music/Info/RRTuneBk/gettune/00000ae1.html
%%ID:00000ae1
K:C
D2A,D FEFG| Add^c d2de| f2df edcA| dcAG FDCE|\
DA, A,/A,/A, FEFG | Ad^cA d2de |\
f2gf edcA | dcAG FDD2::\
Ad d/d/d ^fded | c2Gc EcGc | Ad d/d/d ^fded |\
cBcd edd2 | a/a/a ^ga ABcA | dcAG FDCE |\
D2DE FEFG | Ad^cA d4 :|
